X:1
T:Chopin, CM
T:Chopin, CM
T:Isaac Baker Woodbury, 1854
T:Public Domain Courtesy of the Cyber Hymnal™
C:Isaac Baker Woodbury, 1854
Z:Public Domain
Z:Courtesy of the Cyber Hymnal™
%%score ( 1 2 ) ( 3 4 )
L:1/8
Q:1/4=130
M:3/2
K:Ab
V:1 treble 
V:2 treble 
V:3 bass 
V:4 bass 
V:1
 [CE]2 [CE]2 [CE]2 | [EA]6 E2 [Ac]2 [GB]2 | A6 [Ec]2 [EA]2 [Ec]2 | (e4 c4) (A2 c2) | %4
 [GB]6 [GB]2 [GB]2 [GB]2 | [Ge]6 [GB]2 [Ac]2 [Af]2 | [Ae]6 A2 A2 A2 | [Ac]4 [EA]4 [EB]4 | %8
 [Ec]6 E2 [EA]2 [Ec]2 | (f4 e2 c2) [GB]4 | A6 |] %11
V:2
 x6 | x6 E2 x4 | A6 x6 | A8 A4 | x12 | x12 | x6 A2 A2 A2 | x12 | x6 E2 x4 | A8 x4 | A6 |] %11
V:3
 [A,,A,]2 [A,,A,]2 [A,,A,]2 | [A,,C]6 [A,,C]2 A,2 [E,D]2 | [A,,C]6 A,2 [A,C]2 A,2 | %3
 (C4 E4) (C2 A,2) | [E,E]6 [E,E]2 [E,E]2 [E,E]2 | [E,B,]6 [E,E]2 A,2 [A,D]2 | %6
 [A,C]6 [F,C]2 [F,C]2 [F,C]2 | E4 C4 [E,G,]4 | A,6 [A,C]2 [A,C]2 A,2 | ([D,D]4 E4) (E2 D2) | %10
 [A,,C]6 |] %11
V:4
 x6 | x8 A,2 x2 | x6 A,2 A,2 x2 | A,8 A,4 | x12 | x8 A,2 x2 | x12 | E,8 x4 | A,6 A,2 x4 | %9
 x4 (C,2 A,,2) E,4 | x6 |] %11

